X:66
T:Fool's Journey, The
M:C|
C:© Paul Gitlitz 2007 revised 2018
R:Reel
K:G
"G"BcdB G2G2|BcdB "C"c2c2|"G"BcdB G2G2|"D"FGAF D2D2|!
"G"BcdB G2G2|BcdB "C"[G4c4]|"G"d3e "C"dcAG|"D"FGAF "G"G2G2:|!
|:"D"FGAF D2D2|FGAB "C"c2c2|"D"FGAB "C"(3cBA  BG|"D"AGFE D2D2|!
"D"FGAF D2D2|FGAB "C"[G4c4]|e3d cBAG|"D"FGAF "G"G2G2:|]
